X: 05078
T: ROCKY BAY
C: Bob McQuillen 7 Jan'81
B: Bob's Note Book 5 #78
%R: reel
Z: 2021 John Chambers <jc:trillian.mit.edu>
M: C
L: 1/8
K: G
BA \
| G3E D3E  | GABd edBA | G2GE DEGA | BedB AGEG |\
| G3E DEGA | Bdeg edge | dedB ABGE | DEGA BG :|
|: Bd \
| g3e d3e | gbag edga | b3a  g3a  | bgag egde |\
| g3a b3a | gbag edge | dgag egdc | B2G2 G2 :|
%%begintext align
%% Rocky Bay is a pretty place, on high bluffs
%% overlooking the Atlantic. It is between Arishat and Cap La Ronde on Isle Madame, in
%% the southernmost part of Cape Breton and my mother, born Eleanore Frances Latimer,
%% came from there. Maybe that's why I like Cape Breton music so much!
%%endtext

%%sep 1 1 500

%%sep 1 1 500

